src/images/fb.svg

<svg width="47" height="47" viewBox="0 0 47 47" fill="none" xmlns="http://www.w3.org/2000/svg">
<path d="M44.512 0.313477H1.88602C0.86091 0.313477 0.0327148 1.14167 0.0327148 2.16678V44.7928C0.0327148 45.8179 0.86091 46.6461 1.88602 46.6461H44.512C45.5371 46.6461 46.3653 45.8179 46.3653 44.7928V2.16678C46.3653 1.14167 45.5371 0.313477 44.512 0.313477ZM39.1606 13.8368H35.4598C32.5582 13.8368 31.9964 15.2152 31.9964 17.2423V21.7076H38.9232L38.0197 28.698H31.9964V46.6461H24.7743V28.7038H18.7337V21.7076H24.7743V16.5531C24.7743 10.5704 28.4288 7.3097 33.7687 7.3097C36.3285 7.3097 38.5235 7.50082 39.1664 7.5877V13.8368H39.1606Z" fill="white"/>
</svg>

<svg width="47" height="47" fill="none" xmlns="http://www.w3.org/2000/svg"><path d="M44.512.313H1.886A1.851 1.851 0 0 0 .033 2.167v42.626c0 1.025.828 1.853 1.853 1.853h42.626a1.851 1.851 0 0 0 1.853-1.853V2.167A1.851 1.851 0 0 0 44.512.313zm-5.351 13.524H35.46c-2.902 0-3.464 1.378-3.464 3.405v4.466h6.927l-.903 6.99h-6.024v17.948h-7.222V28.704h-6.04v-6.996h6.04v-5.155c0-5.983 3.655-9.243 8.995-9.243 2.56 0 4.755.19 5.397.278v6.249h-.005z" fill="#fff"/></svg>
